package/svg/logo_controlhome_text.svg

<svg width="56" height="56" viewBox="0 0 56 56" fill="none" xmlns="http://www.w3.org/2000/svg">
<path d="M6.8489 29.5806C6.7019 30.2996 6.1919 31.0906 4.8799 31.0906C3.5299 31.0906 2.8009 30.1556 2.8009 28.8606C2.8009 27.6006 3.6029 26.5586 4.9159 26.5586C6.3739 26.5586 6.8129 27.6016 6.8129 28.1056H5.6439C5.5719 27.7456 5.3889 27.4936 4.9149 27.4936C4.3679 27.4936 4.0399 27.9606 4.0399 28.8256C4.0399 29.7596 4.3679 30.1566 4.9149 30.1566C5.3519 30.1566 5.5719 29.9036 5.6439 29.5806H6.8479H6.8489ZM11.7349 28.8246C11.7349 30.1206 10.9329 31.0916 9.5469 31.0916C8.1969 31.0916 7.3959 30.1206 7.3959 28.8606C7.3959 27.5296 8.1979 26.5946 9.6189 26.5946C10.8969 26.5946 11.7349 27.4576 11.7349 28.8246ZM8.6349 28.8246C8.6349 29.6516 8.9999 30.1556 9.5839 30.1556C10.1679 30.1556 10.4949 29.6516 10.4949 28.8246C10.4949 27.9256 10.1679 27.4936 9.5469 27.4936C8.9999 27.5296 8.6349 27.9256 8.6349 28.8256V28.8246ZM12.5739 27.7456V26.6656H13.7409C13.7769 26.7746 13.7769 27.0976 13.7769 27.2056C13.9239 26.9536 14.2889 26.5586 15.0539 26.5586C15.9289 26.5586 16.5129 27.1346 16.5129 28.2136V30.9476H15.3089V28.3216C15.3089 27.8176 15.1259 27.4936 14.6169 27.4936C14.1059 27.4936 13.8139 27.7816 13.8139 28.5376V30.9476H12.6109V27.7456H12.5739V27.7456ZM17.0589 26.6656H17.7159V25.4786H18.9199V26.6656H19.7589V27.5656H18.9199V29.6876C18.9199 30.0126 19.0289 30.1556 19.3939 30.1556H19.6489V30.9836C19.3939 31.0556 19.0659 31.0556 18.8459 31.0556C18.0079 31.0556 17.7159 30.6236 17.7159 29.8676V27.6016H17.0589V26.6656ZM20.4879 27.8536V26.6656H21.6909C21.7279 26.7746 21.7279 27.2056 21.7279 27.4216C21.9099 26.9176 22.3839 26.5586 23.1129 26.5586V27.7096C22.2389 27.6736 21.7279 27.9256 21.7279 29.1126V30.9836H20.5249V27.8536H20.4879ZM27.8179 28.8246C27.8179 30.1206 27.0149 31.0916 25.6299 31.0916C24.2809 31.0916 23.4789 30.1206 23.4789 28.8606C23.4789 27.5296 24.2809 26.5946 25.7029 26.5946C26.9789 26.5946 27.8179 27.4576 27.8179 28.8246V28.8246ZM24.7189 28.8246C24.7189 29.6516 25.0839 30.1556 25.6669 30.1556C26.2499 30.1556 26.5779 29.6516 26.5779 28.8246C26.5779 27.9256 26.2499 27.4936 25.6299 27.4936C25.0829 27.5296 24.7189 27.9256 24.7189 28.8256V28.8246ZM28.6569 30.9836V24.9036H29.8599V30.9836H28.6569" fill="black"/>
<path d="M31.0641 25.2317H32.3771V27.4987H34.6751V25.2677H35.9501V31.0257H34.6751V28.5427H32.3391V31.0257H31.0641V25.2317V25.2317ZM41.1661 28.8297C41.1661 30.1257 40.3641 31.0967 38.9771 31.0967C37.6281 31.0967 36.8261 30.1257 36.8261 28.8657C36.8261 27.5347 37.6281 26.5997 39.0501 26.5997C40.3261 26.5997 41.1651 27.4627 41.1651 28.8297H41.1661V28.8297ZM38.0661 28.8297C38.0661 29.6567 38.4311 30.1607 39.0141 30.1607C39.5971 30.1607 39.9251 29.6567 39.9251 28.8297C39.9251 27.9307 39.5971 27.4987 38.9771 27.4987C38.4301 27.5347 38.0661 27.9307 38.0661 28.8307V28.8297ZM42.0041 27.7867V26.6707H43.1711C43.2081 26.7797 43.2081 27.0317 43.2081 27.1747C43.4271 26.8507 43.7911 26.5637 44.4111 26.5637C45.0311 26.5637 45.3961 26.8877 45.5421 27.2107C45.7971 26.8507 46.1611 26.5637 46.8911 26.5637C47.6571 26.5637 48.2771 27.0317 48.2771 28.1457V30.9877H47.0741V28.2907C47.0741 27.8937 46.9271 27.5357 46.4171 27.5357C45.9071 27.5357 45.6881 27.8587 45.6881 28.5057V30.9887H44.5211V28.3617C44.5211 27.9307 44.4111 27.5707 43.9011 27.5707C43.3901 27.5707 43.1711 27.8587 43.1711 28.6137V31.0257H41.9681L42.0041 27.7867V27.7867ZM50.3191 29.0817C50.3191 29.6217 50.5741 30.1607 51.1951 30.1607C51.7051 30.1607 51.8511 29.9817 51.9611 29.6927H53.1641C53.0181 30.2327 52.5441 31.0957 51.1581 31.0957C49.7351 31.0957 49.0791 30.0537 49.0791 28.9017C49.0791 27.5707 49.7721 26.5637 51.1951 26.5637C52.6901 26.5637 53.1991 27.6437 53.1991 28.7217C53.1991 28.8657 53.1991 28.9737 53.1641 29.0817H50.3191ZM51.9971 28.3617C51.9971 27.8587 51.7781 27.4267 51.1951 27.4267C50.6111 27.4267 50.3921 27.8227 50.3191 28.3617H51.9971Z" fill="black"/>
</svg>

<svg width="100%" height="100%" viewBox="0 0 56 56" version="1.1" xmlns="http://www.w3.org/2000/svg"><g><path d="M6.849,29.583c-0.147,0.719 -0.657,1.51 -1.969,1.51c-1.35,0 -2.079,-0.935 -2.079,-2.23c-0,-1.26 0.802,-2.302 2.115,-2.302c1.458,0 1.897,1.043 1.897,1.547l-1.169,0c-0.072,-0.36 -0.255,-0.612 -0.729,-0.612c-0.547,0 -0.875,0.467 -0.875,1.332c-0,0.934 0.328,1.331 0.875,1.331c0.437,0 0.657,-0.253 0.729,-0.576l1.204,-0m4.887,-0.756c-0,1.296 -0.802,2.267 -2.188,2.267c-1.35,0 -2.151,-0.971 -2.151,-2.231c-0,-1.331 0.802,-2.266 2.223,-2.266c1.278,-0 2.116,0.863 2.116,2.23Zm-3.1,-0c0,0.827 0.365,1.331 0.949,1.331c0.584,0 0.911,-0.504 0.911,-1.331c0,-0.899 -0.327,-1.331 -0.948,-1.331c-0.547,0.036 -0.912,0.432 -0.912,1.332m3.939,-1.08l0,-1.08l1.167,0c0.036,0.109 0.036,0.432 0.036,0.54c0.147,-0.252 0.512,-0.647 1.277,-0.647c0.875,0 1.459,0.576 1.459,1.655l-0,2.734l-1.204,-0l-0,-2.626c-0,-0.504 -0.183,-0.828 -0.692,-0.828c-0.511,0 -0.803,0.288 -0.803,1.044l-0,2.41l-1.203,-0l-0,-3.202l-0.037,0m4.485,-1.08l0.657,0l0,-1.187l1.204,0l-0,1.187l0.839,0l-0,0.9l-0.839,-0l-0,2.122c-0,0.325 0.109,0.468 0.474,0.468l0.255,0l0,0.828c-0.255,0.072 -0.583,0.072 -0.803,0.072c-0.838,-0 -1.13,-0.432 -1.13,-1.188l0,-2.266l-0.657,0l0,-0.936m3.429,1.188l0,-1.188l1.203,0c0.037,0.109 0.037,0.54 0.037,0.756c0.182,-0.504 0.656,-0.863 1.385,-0.863l-0,1.151c-0.874,-0.036 -1.385,0.216 -1.385,1.403l-0,1.871l-1.203,0l-0,-3.13l-0.037,0m7.33,0.971c-0,1.296 -0.803,2.267 -2.188,2.267c-1.349,0 -2.151,-0.971 -2.151,-2.231c-0,-1.331 0.802,-2.266 2.224,-2.266c1.276,-0 2.115,0.863 2.115,2.23Zm-3.099,-0c-0,0.827 0.365,1.331 0.948,1.331c0.583,0 0.911,-0.504 0.911,-1.331c-0,-0.899 -0.328,-1.331 -0.948,-1.331c-0.547,0.036 -0.911,0.432 -0.911,1.332m3.938,2.158l-0,-6.08l1.203,-0l-0,6.08l-1.203,0" style="fill-rule:nonzero;"/><path d="M31.064,25.229l1.313,0l-0,2.267l2.298,0l-0,-2.231l1.275,0l0,5.758l-1.275,-0l-0,-2.483l-2.336,-0l-0,2.483l-1.275,-0l0,-5.794m10.102,3.598c-0,1.296 -0.802,2.267 -2.189,2.267c-1.349,0 -2.151,-0.971 -2.151,-2.231c0,-1.331 0.802,-2.266 2.224,-2.266c1.276,-0 2.115,0.863 2.115,2.23l0.001,-0Zm-3.1,-0c-0,0.827 0.365,1.331 0.948,1.331c0.583,0 0.911,-0.504 0.911,-1.331c0,-0.899 -0.328,-1.331 -0.948,-1.331c-0.547,0.036 -0.911,0.432 -0.911,1.332m3.938,-1.044l0,-1.116l1.167,0c0.037,0.109 0.037,0.361 0.037,0.504c0.219,-0.324 0.583,-0.611 1.203,-0.611c0.62,0 0.985,0.324 1.131,0.647c0.255,-0.36 0.619,-0.647 1.349,-0.647c0.766,0 1.386,0.468 1.386,1.582l-0,2.842l-1.203,0l-0,-2.697c-0,-0.397 -0.147,-0.755 -0.657,-0.755c-0.51,-0 -0.729,0.323 -0.729,0.97l0,2.483l-1.167,0l-0,-2.627c-0,-0.431 -0.11,-0.791 -0.62,-0.791c-0.511,-0 -0.73,0.288 -0.73,1.043l0,2.412l-1.203,-0l0.036,-3.239m8.315,1.295c0,0.54 0.255,1.079 0.876,1.079c0.51,0 0.656,-0.179 0.766,-0.468l1.203,0c-0.146,0.54 -0.62,1.403 -2.006,1.403c-1.423,0 -2.079,-1.042 -2.079,-2.194c0,-1.331 0.693,-2.338 2.116,-2.338c1.495,0 2.004,1.08 2.004,2.158c0,0.144 0,0.252 -0.035,0.36l-2.845,-0Zm1.678,-0.72c-0,-0.503 -0.219,-0.935 -0.802,-0.935c-0.584,-0 -0.803,0.396 -0.876,0.935l1.678,0" style="fill-rule:nonzero;"/></g></svg>
